assets/icons/info.svg

<svg width="17" height="16" viewBox="0 0 17 16" fill="none" xmlns="http://www.w3.org/2000/svg">
<path fill-rule="evenodd" clip-rule="evenodd" d="M8.5 16C12.9183 16 16.5 12.4183 16.5 8C16.5 3.58172 12.9183 0 8.5 0C4.08172 0 0.5 3.58172 0.5 8C0.5 12.4183 4.08172 16 8.5 16ZM7.55649 7.83332L7.01283 10.9647C6.98868 11.1068 6.97658 11.2452 6.97658 11.38C6.97658 12.0357 7.29876 12.3636 7.94307 12.3636C8.18872 12.3636 8.42631 12.2981 8.65585 12.1669C8.8894 12.0321 9.07464 11.8845 9.21156 11.7243C9.35252 11.564 9.4854 11.3782 9.61024 11.1669C9.73509 10.9519 9.81561 10.8043 9.85185 10.7242C9.88809 10.6404 9.91428 10.573 9.93038 10.522L9.574 10.3526L9.44715 10.5767C9.37467 10.726 9.27801 10.8754 9.1572 11.0248C9.0364 11.1741 8.93572 11.2488 8.85518 11.2488C8.74243 11.2488 8.68606 11.1741 8.68606 11.0248V10.9647L9.22969 7.83332C9.25384 7.69123 9.26594 7.55278 9.26594 7.41801C9.26594 6.76221 8.9478 6.43435 8.31155 6.43435C8.0659 6.43435 7.82628 6.50173 7.59273 6.63654C7.36319 6.77135 7.17793 6.9189 7.037 7.07919C6.89606 7.23948 6.76316 7.42711 6.63832 7.64205C6.51751 7.85338 6.43697 8.00093 6.39671 8.08469C6.36046 8.16486 6.3343 8.23042 6.31818 8.28143L6.68062 8.45086L6.80142 8.22678C6.87793 8.07742 6.97257 7.92805 7.08532 7.77868C7.2021 7.62931 7.30076 7.5546 7.3813 7.5546C7.49809 7.5546 7.55649 7.62931 7.55649 7.77868V7.83332ZM9.95455 4.58722C9.95455 4.31037 9.85789 4.08265 9.6646 3.90412C9.4713 3.72563 9.21762 3.63636 8.9035 3.63636C8.59342 3.63636 8.33973 3.72563 8.1424 3.90412C7.94911 4.08265 7.85245 4.31037 7.85245 4.58722C7.85245 4.86412 7.94911 5.09184 8.1424 5.27033C8.33973 5.44886 8.59342 5.53813 8.9035 5.53813C9.21762 5.53813 9.4713 5.44886 9.6646 5.27033C9.85789 5.09184 9.95455 4.86412 9.95455 4.58722Z" fill="#504C5C"/>
</svg>

<svg width="17" height="16" fill="none" xmlns="http://www.w3.org/2000/svg"><path fill-rule="evenodd" clip-rule="evenodd" d="M8.5 16a8 8 0 1 0 0-16 8 8 0 0 0 0 16zm-.944-8.167-.543 3.132c-.024.142-.036.28-.036.415 0 .656.322.984.966.984.246 0 .483-.066.713-.197.233-.135.419-.283.556-.443.14-.16.273-.346.398-.557a6.08 6.08 0 0 0 .242-.443c.036-.084.062-.151.078-.202l-.356-.17-.127.225c-.072.149-.169.298-.29.448-.12.15-.221.224-.302.224-.113 0-.169-.075-.169-.224v-.06l.544-3.132c.024-.142.036-.28.036-.415 0-.656-.318-.984-.954-.984-.246 0-.486.068-.72.203-.229.134-.414.282-.555.442-.14.16-.274.348-.399.563-.12.211-.201.359-.241.443a1.87 1.87 0 0 0-.079.196l.363.17.12-.224c.077-.15.172-.299.284-.448.117-.15.216-.224.296-.224.117 0 .175.074.175.224v.054zm2.399-3.246a.889.889 0 0 0-.29-.683c-.194-.178-.447-.268-.761-.268-.31 0-.564.09-.762.268a.889.889 0 0 0-.29.683c0 .277.097.505.29.683.198.179.451.268.761.268.315 0 .568-.09.762-.268a.889.889 0 0 0 .29-.683z" fill="#504C5C"/></svg>
